assets/images/icons/src/arrows-v.svg

<?xml version="1.0" encoding="utf-8"?>
<!-- Generated by IcoMoon.io -->
<!DOCTYPE svg PUBLIC "-//W3C//DTD SVG 1.1//EN" "http://www.w3.org/Graphics/SVG/1.1/DTD/svg11.dtd">
<svg version="1.1" xmlns="http://www.w3.org/2000/svg" xmlns:xlink="http://www.w3.org/1999/xlink" width="6" height="14" viewBox="0 0 6 14">
<path fill="#444444" d="M5.5 2.5q0 0.203-0.148 0.352t-0.352 0.148h-1v8h1q0.203 0 0.352 0.148t0.148 0.352-0.148 0.352l-2 2q-0.148 0.148-0.352 0.148t-0.352-0.148l-2-2q-0.148-0.148-0.148-0.352t0.148-0.352 0.352-0.148h1v-8h-1q-0.203 0-0.352-0.148t-0.148-0.352 0.148-0.352l2-2q0.148-0.148 0.352-0.148t0.352 0.148l2 2q0.148 0.148 0.148 0.352z"></path>
</svg>

<svg xmlns="http://www.w3.org/2000/svg" width="6" height="14" viewBox="0 0 6 14"><path fill="#444" d="M5.5 2.5q0 .203-.148.352T5 3H4v8h1q.203 0 .352.148t.148.352-.148.352l-2 2Q3.204 14 3 14t-.352-.148l-2-2Q.5 11.704.5 11.5t.148-.352T1 11h1V3H1q-.203 0-.352-.148T.5 2.5t.148-.352l2-2Q2.796 0 3 0t.352.148l2 2q.148.148.148.352z"/></svg>
